svg/u1f1f0.svg

<svg viewBox="0 0 128 128" xmlns="http://www.w3.org/2000/svg">
  <path d="m110.55 117.41-33.63-53.72 29.73-44.82c0.45-0.69 0.5-1.57 0.1-2.3-0.39-0.73-1.14-1.18-1.97-1.18h-24.44c-0.74 0-1.45 0.38-1.86 1l-26.99 40.69v-39.44c0-1.24-1.01-2.24-2.24-2.24h-21.9c-1.24 0-2.24 1-2.24 2.24v100.96c0 1.24 1 2.24 2.24 2.24h21.9c1.23 0 2.24-1 2.24-2.24v-48.05l30.82 49.24c0.41 0.65 1.13 1.05 1.9 1.05h24.44c0.81 0 1.57-0.44 1.96-1.16 0.39-0.71 0.37-1.58-0.06-2.27z" fill="#40C0E7"/>
</svg>

<svg viewBox="0 0 128 128" xmlns="http://www.w3.org/2000/svg">
  <defs/>
  <path d="M110.55,117.41 L76.92,63.69 L106.65,18.87 C107.1,18.18 107.15,17.3 106.75,16.57 C106.36,15.84 105.61,15.39 104.78,15.39 L80.34,15.39 C79.6,15.39 78.89,15.77 78.48,16.39 L51.49,57.08 L51.49,17.64 C51.49,16.4 50.48,15.4 49.25,15.4 L27.35,15.4 C26.11,15.4 25.11,16.4 25.11,17.64 L25.11,118.6 C25.11,119.84 26.11,120.84 27.35,120.84 L49.25,120.84 C50.48,120.84 51.49,119.84 51.49,118.6 L51.49,70.55 L82.31,119.79 C82.72,120.44 83.44,120.84 84.21,120.84 L108.65,120.84 C109.46,120.84 110.22,120.4 110.61,119.68 C111,118.97 110.98,118.1 110.55,117.41 Z" fill="#40C0E7"/>
</svg>
